X:1
T:Title
%%score { ( 1 3 ) | ( 2 4 ) }
L:1/8
M:4/4
K:Bb
V:1 treble nm="Grand Piano"
V:3 treble 
V:2 bass 
V:4 bass 
V:1
 z4 z2[Q:1/4=90] [B,D][CE] | [DF][Fd][Fd][Ec] [Ec][DB][DF][DF] | z4 G2 z2 | FFGA Bddd | %4
[M:9/8] [=Ed][Ec][EG] [Ed] [_Ec]2- [Ec][B,D][CE] |[M:4/4] [DF][Fd][Fd][Ec] [Ec][DB][DF][DF] | %6
 GGGG [Ac][GB][FA]G |[M:17/16] FFGABd3/2dd |[M:7/8] [=Ed][Ec][_EG] [EA] [DB]3 | %9
[M:4/4] DDDD [Fd]2 [Fd][Fd] | c-[Gc-][Gc-][Gc] G2 G[GB] | BAAG FGA[Ge] | %12
 [Ge][Fd][DB][EG] [DF]2 [B,D][CE] | [DF][Fd][Fd][Ec] [Ec][DB][DF][DF] | GGGG [Ac][GB][FA]G | %15
[M:17/16] FFGABd3/2dd |[M:15/8] [=Ed][Ec][_EG][EA] [DB]2- [DB] z2 z6 |] %17
V:2
 z4 z2 [B,,F,][B,,F,] | [B,,B,][B,,B,][B,,B,][B,,B,] [B,,B,][B,,F,][B,,B,][B,,B,] | z4 E2 .E2 | %3
 [F,A,E][F,A,E][F,B,=E][F,C_E] [F,B,D][F,B,F][F,B,F][F,B,F] | %4
[M:9/8] [C,B,][C,G,][C,C] [C,B,] [F,A,]2- [F,A,][B,,F,][B,,F,] | %5
[M:4/4] [B,,B,][B,,B,][B,,B,][B,,B,] [B,,B,][B,,F,][B,,B,][B,,B,] | %6
 [E,B,E][E,B,E][E,B,E][E,B,E] [E,E]2 [E,B,][E,B,E] | %7
[M:17/16] [F,B,D][F,B,D][F,B,=E][F,C_E][F,B,D][F,B,F]3/2[F,B,F][F,B,F] | %8
[M:7/8] [C,B,][C,C][F,C] [F,C] [B,,B,]3 | %9
[M:4/4] [B,,B,][B,,B,][B,,B,][B,,B,] [B,,B,]2 [B,,B,][B,,B,] | %10
 [E,B,][E,B,][E,B,][E,B,] [E,B,E]2 [E,B,E][E,E] | %11
 [F,CE][F,CE][F,CE][F,B,E] [F,A,E][F,B,E][F,CE][F,A,] | %12
 [B,,B,][B,,B,][B,,B,][B,,B,] [B,,B,]2 [B,,F,][B,,F,] | %13
 [B,,B,][B,,B,][B,,B,][B,,B,] [B,,B,][B,,F,][B,,B,][B,,B,] | %14
 [E,B,E][E,B,E][E,B,E][E,B,E] [E,E]2 [E,B,][E,B,E] | %15
[M:17/16] [F,B,D][F,B,D][F,B,=E][F,C_E][F,B,D][F,B,F]3/2[F,B,F][F,B,F] | %16
[M:15/8] [C,B,][C,C][F,C][F,C] [B,,B,]2- [B,,B,] z2 z6 |] %17
V:3
 x8 | x8 | [FA]GG^F z B,GG | x8 |[M:9/8] x9 |[M:4/4] x8 | x8 |[M:17/16] x17/2 |[M:7/8] x7 | %9
[M:4/4] F4 z4 | .G2 z2 z4 | x8 | x8 | x8 | x8 |[M:17/16] x17/2 |[M:15/8] x15 |] %17
V:4
 x8 | x8 | [E,B,][E,B,E][E,B,E][E,A,E] [E,B,]E,[E,B,]-[E,B,E] | x8 |[M:9/8] x9 |[M:4/4] x8 | x8 | %7
[M:17/16] x17/2 |[M:7/8] x7 |[M:4/4] x8 | x8 | x8 | x8 | x8 | x8 |[M:17/16] x17/2 |[M:15/8] x15 |] %17

